src/lib/packages/icons/src/assets/filled/home-wifi.svg

<svg width="24" height="24" viewBox="0 0 24 24" fill="none" xmlns="http://www.w3.org/2000/svg">
<path fill-rule="evenodd" clip-rule="evenodd" d="M19.5699 8.58608L13.606 3.58498C12.677 2.80598 11.3219 2.80598 10.3929 3.58498L4.42896 8.58608C3.52296 9.34608 2.99902 9.65302 2.99902 11.651V18C2.99902 20 3.99902 21 5.99902 21H17.999C19.999 21 20.999 20 20.999 18V11.651C21 9.65202 20.4769 9.34608 19.5699 8.58608ZM12 17.5C11.448 17.5 11 17.052 11 16.5C11 15.948 11.448 15.5 12 15.5C12.552 15.5 13 15.948 13 16.5C13 17.052 12.552 17.5 12 17.5ZM14.848 14.714C14.7 14.908 14.476 15.01 14.249 15.01C14.091 15.01 13.932 14.9601 13.796 14.8571C12.767 14.0751 11.234 14.0751 10.204 14.8571C9.87298 15.1081 9.40398 15.043 9.15198 14.713C8.90198 14.383 8.96602 13.913 9.29602 13.662C10.853 12.479 13.148 12.479 14.704 13.662C15.033 13.914 15.098 14.385 14.848 14.714ZM17.068 12.656C16.92 12.828 16.711 12.917 16.5 12.917C16.326 12.917 16.152 12.857 16.011 12.735C14.899 11.777 13.474 11.25 12 11.25C10.526 11.25 9.10201 11.777 7.98901 12.735C7.67601 13.005 7.20203 12.97 6.93103 12.656C6.66003 12.342 6.69701 11.868 7.01001 11.598C8.39501 10.406 10.166 9.75002 11.999 9.75002C13.832 9.75002 15.603 10.406 16.988 11.598C17.303 11.868 17.339 12.342 17.068 12.656Z" fill="currentColor"/>
</svg>

<svg xmlns="http://www.w3.org/2000/svg" width="24" height="24" fill="none"><path fill="currentColor" fill-rule="evenodd" d="m19.57 8.586-5.964-5.001a2.5 2.5 0 0 0-3.213 0L4.429 8.586c-.906.76-1.43 1.067-1.43 3.065V18c0 2 1 3 3 3h12c2 0 3-1 3-3v-6.349c.001-1.999-.522-2.305-1.43-3.065ZM12 17.5a1 1 0 1 1 0-2 1 1 0 0 1 0 2Zm2.848-2.786a.751.751 0 0 1-1.052.143c-1.029-.782-2.562-.782-3.592 0a.75.75 0 0 1-.908-1.195c1.557-1.183 3.852-1.183 5.408 0a.753.753 0 0 1 .144 1.052Zm2.22-2.058a.747.747 0 0 1-1.057.079A6.146 6.146 0 0 0 12 11.25a6.148 6.148 0 0 0-4.011 1.485.75.75 0 0 1-.979-1.137 7.648 7.648 0 0 1 4.989-1.848c1.833 0 3.604.656 4.989 1.848.315.27.351.744.08 1.058Z" clip-rule="evenodd"/></svg>
